public/images/icon_css3.svg

<svg fill="none" height="24" viewBox="0 0 24 24" width="24" xmlns="http://www.w3.org/2000/svg"><path d="m6.40005 5.60005h10.39995v4.79995m-7.19995 0h7.19995m0 0v4.8l-4.8 1.6-4.79995-1.6v-2.4m-6.400001-11.999951h22.399951l-1.6 19.199951-9.6 3.2-9.59995-3.2z" stroke="#ddd"/></svg>

<svg width="24" height="24" viewBox="0 0 24 24" fill="none" xmlns="http://www.w3.org/2000/svg">
<path d="M6.40005 5.60005H16.8V10.4M9.60005 10.4H16.8M16.8 10.4V15.2L12 16.8L7.20005 15.2V12.8M0.800049 0.800049H23.2L21.6 20L12 23.2L2.40005 20L0.800049 0.800049Z" stroke="#DDDDDD"/>
</svg>
